X:1
T:Title
%%score { ( 1 3 ) | ( 2 4 ) }
L:1/8
M:6/8
K:G
V:1 treble nm="Grand Piano"
V:3 treble 
V:2 treble 
V:4 treble 
V:1
 z3 z2[Q:1/4=87] D | DGA BAG | [EA][EG]E D2 D | DGA BAG |[M:7/8] EAB [FA]3 D |[M:3/4] dd dc cc | %6
 BA G [Ec]3 | BB BB AE |[M:15/16] A3 z3/2 z3 |[M:3/4] B_B =Bd cB | [EA]4 z2 | DF A[Fc] [GB][FA] | %12
 d2- [Fd] B2 D | DG A B2 B |[M:15/16] Bc/-c/de3/2- e3 | %15
[M:3/4] [EGA][E^GB] [EAc][D=GB] [B,G][CFA][Q:1/4=86][Q:1/4=84][Q:1/4=83][Q:1/4=82][Q:1/4=80][Q:1/4=79][Q:1/4=77][Q:1/4=76][Q:1/4=75][Q:1/4=73][Q:1/4=72][Q:1/4=71][Q:1/4=69][Q:1/4=68][Q:1/4=67] | %16
[M:5/8] G-G- G3 |] %17
V:2
 z3 z2 [G,B,] | [G,B,][G,B,D][G,CD] [G,DG][G,CG][K:bass][G,B,] | [C,C][C,C][C,G,C] [G,B,]2 [G,B,] | %3
 [G,B,][K:treble][G,B,D][G,CD] [G,DG][G,CG][G,B,D] | %4
[M:7/8] [A,^C][A,CE][A,CG][K:bass] [D,=C]3 [D,C] | %5
[M:3/4][K:treble] [G,B,G][G,B,G] [G,B,G][G,EG] [G,EG][G,EG] | %6
 [G,DG][G,CF] [G,B,=F][K:bass] [C,G,]3 | [D,G,D][D,G,D] [D,G,D][E,A,^C] [E,A,C][G,A,C] | %8
[M:15/16] [F,A,D]->[F,A,D][E,G,][D,F,D]3/2- [D,F,D]3 | %9
[M:3/4][K:treble] [G,DG][G,CG] [G,DG][B,DG] [A,DF][G,DG] | C,2 C, .[C,G,C]3 | %11
 [D,F,C][D,A,C] [D,F,C][D,A,] [D,D][D,C] | [G,B,]2[K:treble] [A,C] [G,DG]2 [G,B,] | %13
 [G,B,][G,B,D] [G,CD] [G,DG]2 [G,DG] |[M:15/16] [G,DG][A,DF]/-[A,DF]/[B,DG][CG]3/2- [CG]3 | %15
[M:3/4][K:bass] C,B,, A,,D, D,D, |[M:5/8] z2 C B,2 |] %17
V:3
 x6 | x6 | x6 | x6 |[M:7/8] x7 |[M:3/4] x6 | x6 | x6 |[M:15/16] z3/2 z/ ^Cd3/2- d3 |[M:3/4] x6 | %10
 C2 C .E3 | x6 | G2 z2 z2 | x6 |[M:15/16] x15/2 |[M:3/4] x6 |[M:5/8] B,2 E D2 |] %17
V:4
 x6 | x5[K:bass] x | x6 | x[K:treble] x5 |[M:7/8] x3[K:bass] x4 |[M:3/4][K:treble] x6 | %6
 x3[K:bass] x3 | x6 |[M:15/16] x15/2 |[M:3/4][K:treble] x6 | x6 | x6 | x2[K:treble] x4 | x6 | %14
[M:15/16] x15/2 |[M:3/4][K:bass] x6 |[M:5/8] G,-G,- G,3 |] %17

